app/dist/common/images/hanseyachts-ag.svg

<svg height="18" viewBox="0 0 18 18" width="18" xmlns="http://www.w3.org/2000/svg"><path d="m0 0h18v18h-18z" fill="#f0f3fa"/><path d="m5.3 6h-1.3v6h1.3v-2.54h2.4v2.54h1.3v-6h-1.3v2.3h-2.4zm3.96 0 2.2 3.66v2.34h1.31v-2.3l2.23-3.7h-1.47l-1.38 2.37-1.4-2.37h-1.5z" fill="#565656"/></svg>

<!-- by TradingView --><svg width="18" height="18" viewBox="0 0 18 18" xmlns="http://www.w3.org/2000/svg"><path fill="#F0F3FA" d="M0 0h18v18H0z"/><path d="M5.3 6H4v6h1.3V9.46h2.4V12H9V6H7.7v2.3H5.3V6Zm3.96 0 2.2 3.66V12h1.31V9.7L15 6h-1.47l-1.38 2.37L10.75 6h-1.5Z" fill="#565656"/></svg>
